X:1
T:[ID 1-68b]
T:[ID 1-68b]
T:Bezeichnung standardisiert: Menuet Gruijtters (39); Men\"uet \"Ahnlich in anderer Quelle: Menuet (nr. 51) - Handschrift Spriet 1760 ca. (Anm. S. Wascher);
T:Urheber unbekannt Erstbeleg: 1760 (Datum in der schriftlichen Quelle) Datum in der hier transkribierten schriftlichen Quelle: vermutlich vor 1767
C:Urheber unbekannt
C:Erstbeleg: 1760 (Datum in der schriftlichen Quelle)
C:Datum in der hier transkribierten schriftlichen Quelle: vermutlich vor 1767
L:1/8
M:3/4
K:D
V:1 treble 
V:1
 dcdefg | a3 f a2 | bagfed | c2 Bc A2 | FDGEFD | E2 dc d2 | FDGEFD | E2 dc d2 | egfedc | d6 :: %10
 f2 f2 f2 | e2 e2 e2 |"^h" ac'd'c'ba | ^g2 fg e2 | cAdBcA | B2 a^g a2 | cAdBcA | E2 a^g a2 | %18
 bd'c'ba^g a6 | a2 d'c' d'2 | a2 d'c' d'2 | efgfed | c2 Bc A2 | FDGEFD | E2 dc d2 | FDGEFD | %26
 E2 dc d2 | egfedc | d6 :| %29

